src/general/components/img/Info.svg

<svg enable-background="new 0 0 50 50" height="50" viewBox="0 0 50 50" width="50" xmlns="http://www.w3.org/2000/svg"><path d="m110 21.5c-1.731 0-3.125 1.395-3.125 3.125s1.394 3.125 3.125 3.125c1.721 0 3.125-1.394 3.125-3.125s-1.404-3.125-3.125-3.125zm0 9.375c-1.731 0-3.125 1.394-3.125 3.125v9.375c0 1.714 1.394 3.125 3.125 3.125 1.721 0 3.125-1.411 3.125-3.125v-9.375c0-1.73-1.404-3.125-3.125-3.125zm0-21.875c-13.791 0-25 11.209-25 25 0 13.774 11.209 25 25 25 13.774 0 25-11.226 25-25 0-13.791-11.226-25-25-25zm0 46.875c-12.062 0-21.875-9.814-21.875-21.875s9.813-21.875 21.875-21.875c12.061 0 21.875 9.814 21.875 21.875s-9.814 21.875-21.875 21.875z" transform="translate(-85 -9)"/></svg>

<?xml version="1.0" encoding="utf-8"?>
<!-- Generator: Adobe Illustrator 15.1.0, SVG Export Plug-In . SVG Version: 6.00 Build 0)  -->
<!DOCTYPE svg PUBLIC "-//W3C//DTD SVG 1.1//EN" "http://www.w3.org/Graphics/SVG/1.1/DTD/svg11.dtd">
<svg version="1.1" id="Layer_1" xmlns="http://www.w3.org/2000/svg" xmlns:xlink="http://www.w3.org/1999/xlink" x="0px" y="0px"
	 width="50px" height="50px" viewBox="0 0 50 50" enable-background="new 0 0 50 50" xml:space="preserve">
<g id="Desktop-_x2F_-Checkout-1">
	<g id="Desktop-Checkout_Error" transform="translate(-683.000000, -783.000000)">
		<g id="Group-18" transform="translate(155.000000, 771.000000)">
			<g id="Input-field-01" transform="translate(443.000000, 3.000000)">
				<path id="Shape" d="M110,21.5c-1.731,0-3.125,1.395-3.125,3.125s1.394,3.125,3.125,3.125c1.721,0,3.125-1.394,3.125-3.125
					S111.721,21.5,110,21.5z M110,30.875c-1.731,0-3.125,1.394-3.125,3.125v9.375c0,1.714,1.394,3.125,3.125,3.125
					c1.721,0,3.125-1.411,3.125-3.125V34C113.125,32.27,111.721,30.875,110,30.875z M110,9C96.209,9,85,20.209,85,34
					c0,13.774,11.209,25,25,25c13.774,0,25-11.226,25-25C135,20.209,123.774,9,110,9z M110,55.875
					c-12.062,0-21.875-9.814-21.875-21.875c0-12.061,9.813-21.875,21.875-21.875c12.061,0,21.875,9.814,21.875,21.875
					C131.875,46.061,122.061,55.875,110,55.875z"/>
			</g>
		</g>
	</g>
</g>
</svg>
